X: 1
T: Araber tants  [D]
R: Terkish
S: handwritten MS of unknown origin labelled "III-2"
Z: 2009 John Chambers <jc:trillian.mit.edu>
M: C
L: 1/8
K: Dphr^F
[|]D2 "A"|\
"D"FGA2 A2A2 | "Gm"B6 AG |\
"D"FGA2 "Eb"BAGA | "D"GF3 z2 ||\
"D"FGA2 A2A2 | "Cm"c4- cBAG |
"D"FGA2 "Eb"BAGA | "D"GF3 z4 \
|: z2 "B"|\
"D"Dd2^c d2A2 | "Gm"B3c d2c/B/A/G/ |\
"Cm"FG3- GFEF |
"D"ED3 z :: D (3BAG "C"|\
"D"F8 | "Gm"G8 |\
"D"FGAF- FD"Cm"EC | "D"DEFG AdAG |
| "D"F8 | "Gm"G4 zD (3BAG |\
"D"FGAF- FD"Cm"EC |1 "D"D4 z :|\
[2 "D"D4 zd "Cm"c/B/A/G/ ||
"D"|:\
"D"FGAF- FD "Cm"E/D/E/C/ | "D"DEFG Ad "Cm"c/B/A/G/ |\
"D"FGAF- FD"Cm"EC |1 "D"DD2A, DA,D2 :|2 "D"D6 |]

%%sep 1 1 500
%%sep 1 1 500

